svg/script_text_play.svg

<svg xmlns="http://www.w3.org/2000/svg" viewBox="0 0 24 24"><path d="M13.8 22H5c-1.7 0-3-1.3-3-3v-1h11.1c-.1.3-.1.7-.1 1 0 1.1.3 2.1.8 3m0-6H5V5c0-1.7 1.3-3 3-3h11c1.7 0 3 1.3 3 3v1h-2V5c0-.6-.4-1-1-1s-1 .4-1 1v8.1c-1.8.3-3.3 1.4-4.2 2.9M8 8h7V6H8zm0 4h6v-2H8zm9 4v6l5-3z"/></svg>

<svg xmlns="http://www.w3.org/2000/svg" id="mdi-script-text-play" viewBox="0 0 24 24"><path d="M13.8 22H5C3.3 22 2 20.7 2 19V18H13.1C13 18.3 13 18.7 13 19C13 20.1 13.3 21.1 13.8 22M13.8 16H5V5C5 3.3 6.3 2 8 2H19C20.7 2 22 3.3 22 5V6H20V5C20 4.4 19.6 4 19 4S18 4.4 18 5V13.1C16.2 13.4 14.7 14.5 13.8 16M8 8H15V6H8V8M8 12H14V10H8V12M17 16V22L22 19L17 16Z" /></svg>
